X: 2460
T: Balls To Hall
R: jig
M: 6/8
K: Eminor
|:GEE AEE|BEE cBA|BcB B2A|FAF DEF|
GEE AEE|BEE cBA|BcB B2A|1 GED E2F:|2 GED E2A||
K: Emaj
|:B2e e2f|g2a gfe|c2a a2g|f2f fec|
[1 ~B3 e2f|g2a gfe|bee aee|gag fec:|
[2 ~B3 e2f|g3 g3|aef =dAB|FEF =DEF||

